assets/icons/18px/twitter.svg

<svg width="19" height="18" viewBox="0 0 19 18" fill="none" xmlns="http://www.w3.org/2000/svg">
<g clip-path="url(#clip0_448_2008)">
<path d="M14.7583 4.35422C14.8765 4.48269 15.0532 4.54019 15.2244 4.5059C15.4876 4.45318 15.7657 4.31093 15.9822 4.19484C16.0517 4.15752 16.1173 4.12155 16.1798 4.08728C16.339 4.00004 16.478 3.92378 16.6119 3.86415C16.6291 3.85649 16.6453 3.84952 16.6606 3.8432C16.6585 3.85627 16.6556 3.87209 16.6517 3.89085C16.6386 3.95438 16.6174 4.03476 16.5878 4.12914C16.5287 4.31781 16.4416 4.54389 16.3363 4.77268C16.2308 5.00187 16.1113 5.22437 15.9896 5.40906C15.8628 5.60149 15.7547 5.72027 15.6811 5.77464C15.5473 5.87353 15.4714 6.03253 15.4787 6.19879C15.4845 6.33041 15.4877 6.4626 15.4877 6.59272C15.4877 10.5864 12.5272 14.5 7.0245 14.5C6.18543 14.5 4.92564 14.3247 3.92699 14.0615C3.49544 13.9478 3.14135 13.8249 2.89898 13.7064C2.93244 13.6977 2.96885 13.6891 3.00839 13.6805C3.28338 13.621 3.6249 13.5813 4.02596 13.5347C4.09521 13.5267 4.16623 13.5184 4.239 13.5098C4.71662 13.4534 5.25137 13.3836 5.75477 13.2565C6.25492 13.1301 6.76525 12.9376 7.17338 12.6108C7.30158 12.5081 7.37119 12.3491 7.35962 12.1852C7.34804 12.0214 7.25676 11.8737 7.11541 11.7901C5.38244 10.7651 4.48787 9.72793 4.01513 8.74072C3.53957 7.74763 3.46405 6.75182 3.46405 5.74535C3.46405 5.43827 3.46838 5.03218 3.58058 4.70739C3.63422 4.55214 3.70153 4.4504 3.77396 4.38874C3.83745 4.3347 3.93552 4.28439 4.1156 4.28439C4.18876 4.28439 4.34637 4.34435 4.67453 4.64692C4.81978 4.78084 4.97438 4.93816 5.15231 5.11922L5.16989 5.13711C5.35197 5.32238 5.5542 5.52756 5.77548 5.73388C6.66658 6.56476 7.90647 7.45199 9.75843 7.45199C9.91017 7.45199 10.0537 7.38308 10.1486 7.26467C10.2435 7.14626 10.2795 6.99116 10.2464 6.84306C10.2014 6.6413 10.1773 6.43324 10.1773 6.21963C10.1773 4.70705 11.3742 3.5 12.8271 3.5C13.5859 3.5 14.273 3.82685 14.7583 4.35422ZM16.654 3.67135C16.6541 3.67106 16.6552 3.67363 16.6567 3.67992C16.6545 3.67478 16.6538 3.67164 16.654 3.67135Z" stroke="white" stroke-linejoin="round"/>
</g>
<defs>
<clipPath id="clip0_448_2008">
<rect width="18" height="18" fill="white" transform="translate(0.666656)"/>
</clipPath>
</defs>
</svg>

<svg width="19" height="18" fill="none" xmlns="http://www.w3.org/2000/svg"><g clip-path="url(#clip0_448_2008)"><path d="M14.758 4.354a.5.5 0 0 0 .466.152c.264-.053.542-.195.758-.311.07-.037.135-.073.198-.108.159-.087.298-.163.432-.223a1.95 1.95 0 0 1 .049-.02 2.527 2.527 0 0 1-.073.286 5.584 5.584 0 0 1-.598 1.28 1.51 1.51 0 0 1-.309.365.5.5 0 0 0-.202.424c.006.131.009.264.009.394 0 3.993-2.96 7.907-8.463 7.907-.84 0-2.1-.175-3.098-.438a5.87 5.87 0 0 1-1.028-.356 2.81 2.81 0 0 1 .11-.025c.274-.06.616-.1 1.017-.146l.213-.025a12.03 12.03 0 0 0 1.516-.253c.5-.127 1.01-.32 1.418-.646a.5.5 0 0 0-.058-.82c-1.733-1.026-2.627-2.063-3.1-3.05-.475-.993-.55-1.99-.55-2.996-.001-.307.003-.713.116-1.038a.715.715 0 0 1 .193-.318c.063-.054.162-.105.342-.105.073 0 .23.06.559.363.145.134.3.291.477.472l.018.018c.182.185.384.39.605.597.892.83 2.131 1.718 3.983 1.718a.5.5 0 0 0 .488-.609 2.858 2.858 0 0 1-.069-.623c0-1.513 1.197-2.72 2.65-2.72.759 0 1.446.327 1.931.854zm1.896-.683l.003.009a.026.026 0 0 1-.003-.009z" stroke="#fff" stroke-linejoin="round"/></g><defs><clipPath id="clip0_448_2008"><path fill="#fff" transform="translate(.667)" d="M0 0H18V18H0z"/></clipPath></defs></svg>
